X:89
T:Elks' Festival, The
R:hornpipe
H:Similar to the last two parts of "The Derry Hornpipe", #24
D:Declan Masterson: End of the Harvest
Z:id:hn-hornpipe-89
M:C|
K:D
|:FG|AFAd fedc|BGBd gfed|cAce af (3gfe|fcdB AGFG|
AFAd fedc|BGBd g2ag|fafd Bgec|dfec d2:|
|:fg|a2fd Adfd|g2ec Agag|fdge afbg|ecdB A2fg|
a2fd Adfd|g2ec Agag|fdAF Egec|d2dc d2:|

